X: 13413
T: Flitter Daunse
R: reel
M: 4/4
K: Aminor
c2 A2 A2 e2|c2 A2 A2 Bc|d2 dc B2 BA|G2 B2 E4|
c2 A2 A2 e2|c2 A2 A2 Bc|d2 B2 A2 G2|A4 A4|
c2 e2 e2 fg|a2 e2 e2 fg|a2 e2 e2 d2|c2 e2 B4|
c2 e2 e2 fg|a2 e2 e2 fg|a2 e2 d2 c2|B4 A4||

